src/assets/icons/face.svg

<svg width="64" height="64" viewBox="0 0 64 64" fill="none" xmlns="http://www.w3.org/2000/svg">
<path d="M56 0H8C3.588 0 0 3.588 0 8V56C0 60.412 3.588 64 8 64H32V42H24V32H32V24C32 17.372 37.372 12 44 12H52V22H48C45.792 22 44 21.792 44 24V32H54L50 42H44V64H56C60.412 64 64 60.412 64 56V8C64 3.588 60.412 0 56 0Z" fill="#28282D"/>
</svg>

<svg xmlns="http://www.w3.org/2000/svg" width="64" height="64" fill="none" xmlns:v="https://vecta.io/nano"><path d="M56 0H8a8.01 8.01 0 0 0-8 8v48a8.01 8.01 0 0 0 8 8h24V42h-8V32h8v-8a12 12 0 0 1 12-12h8v10h-4c-2.208 0-4-.208-4 2v8h10l-4 10h-6v22h12a8.01 8.01 0 0 0 8-8V8a8.01 8.01 0 0 0-8-8z" fill="#28282d"/></svg>
